svgs/thin/circle-right.svg

<svg xmlns="http://www.w3.org/2000/svg" viewBox="0 0 512 512"><!--! Font Awesome Pro 6.3.0 by @fontawesome - https://fontawesome.com License - https://fontawesome.com/license (Commercial License) Copyright 2023 Fonticons, Inc. --><path d="M296.1 146.3C281.9 131.2 256 141.9 256 163.3V208H152C138.7 208 128 218.7 128 232v48C128 293.3 138.7 304 152 304H256v44.69c0 21.38 25.85 32.09 40.97 16.97l92.68-92.69C394.3 268.3 396.7 262.1 396.7 256s-2.344-12.28-7.029-16.97L296.1 146.3zM378.3 261.7l-92.68 92.68c-3.412 3.41-7.232 2.348-8.719 1.738C275.5 355.5 272 353.5 272 348.7V288H152C147.6 288 144 284.4 144 280v-48C144 227.6 147.6 224 152 224h120V163.3c0-4.824 3.453-6.777 4.938-7.395c1.486-.6094 5.307-1.672 8.719 1.738l92.68 92.68C380.4 252.4 380.7 254.8 380.7 256S380.4 259.6 378.3 261.7zM256 0C114.6 0 0 114.6 0 256s114.6 256 256 256s256-114.6 256-256S397.4 0 256 0zM256 496c-132.3 0-240-107.7-240-240S123.7 16 256 16s240 107.7 240 240S388.3 496 256 496z"/></svg>

<svg xmlns="http://www.w3.org/2000/svg" viewBox="0 0 512 512"><!-- Font Awesome Pro 6.0.0-alpha2 by @fontawesome - https://fontawesome.com License - https://fontawesome.com/license (Commercial License) --><path d="M389.654 272.971C394.34 268.283 396.684 262.143 396.684 256S394.34 243.717 389.654 239.029L296.971 146.346C281.852 131.227 256 141.934 256 163.316V208H152C138.744 208 128 218.746 128 232V280C128 293.254 138.744 304 152 304H256V348.684C256 370.066 281.852 380.773 296.971 365.654L389.654 272.971ZM276.938 356.076C275.453 355.461 272 353.508 272 348.684V288H152C147.588 288 144 284.412 144 280V232C144 227.588 147.588 224 152 224H272V163.316C272 158.492 275.453 156.539 276.938 155.924C278.424 155.311 282.244 154.248 285.656 157.66L378.34 250.344C380.379 252.383 380.684 254.762 380.684 256S380.379 259.617 378.34 261.656L285.656 354.34C282.244 357.752 278.424 356.689 276.938 356.076ZM496 256C496 123.451 388.549 16 256 16S16 123.451 16 256S123.451 496 256 496S496 388.549 496 256ZM32 256C32 132.486 132.486 32 256 32S480 132.486 480 256S379.514 480 256 480S32 379.514 32 256Z"/></svg>
